Sweet-Rainbow/icons/messenger.svg

<?xml version="1.0" encoding="UTF-8" standalone="no"?>
<!-- Generator: Gravit.io -->

<svg
   xmlns:dc="http://purl.org/dc/elements/1.1/"
   xmlns:cc="http://creativecommons.org/ns#"
   xmlns:rdf="http://www.w3.org/1999/02/22-rdf-syntax-ns#"
   xmlns:svg="http://www.w3.org/2000/svg"
   xmlns="http://www.w3.org/2000/svg"
   xmlns:sodipodi="http://sodipodi.sourceforge.net/DTD/sodipodi-0.dtd"
   xmlns:inkscape="http://www.inkscape.org/namespaces/inkscape"
   style="isolation:isolate"
   viewBox="0 0 48 48"
   width="48"
   height="48"
   version="1.1"
   id="svg18"
   sodipodi:docname="messenger.svg"
   inkscape:version="0.92.4 (5da689c313, 2019-01-14)">
  <metadata
     id="metadata24">
    <rdf:RDF>
      <cc:Work
         rdf:about="">
        <dc:format>image/svg+xml</dc:format>
        <dc:type
           rdf:resource="http://purl.org/dc/dcmitype/StillImage" />
        <dc:title></dc:title>
      </cc:Work>
    </rdf:RDF>
  </metadata>
  <defs
     id="defs22" />
  <sodipodi:namedview
     pagecolor="#ffffff"
     bordercolor="#666666"
     borderopacity="1"
     objecttolerance="10"
     gridtolerance="10"
     guidetolerance="10"
     inkscape:pageopacity="0"
     inkscape:pageshadow="2"
     inkscape:window-width="640"
     inkscape:window-height="480"
     id="namedview20"
     showgrid="false"
     inkscape:zoom="39.153656"
     inkscape:cx="18.994082"
     inkscape:cy="24"
     inkscape:current-layer="svg18" />
  <linearGradient
     id="_lgradient_3"
     x1="-0.065098844"
     y1="0.65886366"
     x2="0.92774218"
     y2="0.79702944"
     gradientTransform="matrix(44.01,0,0,44,2.99,1.01)"
     gradientUnits="userSpaceOnUse">
    <stop
       offset="0%"
       stop-opacity="1"
       style="stop-color:rgb(79,172,254)"
       id="stop2" />
    <stop
       offset="98.69565217391305%"
       stop-opacity="1"
       style="stop-color:rgb(0,242,254)"
       id="stop4" />
  </linearGradient>
  <linearGradient
     id="_lgradient_4"
     x1="11.954684"
     y1="30.202549"
     x2="27.646139"
     y2="30.202549"
     gradientTransform="scale(1.3131271,0.7615409)"
     gradientUnits="userSpaceOnUse">
    <stop
       offset="0%"
       stop-opacity="1"
       style="stop-color:rgb(178,254,250)"
       id="stop11" />
    <stop
       offset="98.26086956521739%"
       stop-opacity="1"
       style="stop-color:rgb(14,210,247)"
       id="stop13" />
  </linearGradient>
  <g
     id="g837"
     transform="matrix(1.0434783,0,0,1.0434783,-1.0434792,-0.01043568)">
    <path
       id="path7"
       d="m 8.54,30.32 v 0 c 0.453,1.004 0.002,2.185 -1.005,2.635 v 0 C 6.528,33.405 5.343,32.95 4.89,31.94 v 0 c -1.25,-2.8 -1.9,-5.84 -1.9,-8.91 0,-1.09 0.09,-2.19 0.25,-3.27 0.77,-5.21 3.4,-9.97 7.38,-13.41 3.99,-3.44 9.09,-5.34 14.36,-5.34 1.09,0 2.18,0.08 3.27,0.24 5.21,0.78 9.97,3.4 13.41,7.39 3.44,3.99 5.34,9.08 5.34,14.35 0,1.1 -0.08,2.19 -0.25,3.27 -0.77,5.19 -3.37,9.93 -7.33,13.37 -3.96,3.44 -9.02,5.35 -14.27,5.38 L 24,44 v -2 l 1.13,-0.99 c 4.29,-0.03 8.43,-1.59 11.67,-4.4 3.24,-2.81 5.37,-6.69 6,-10.94 C 42.93,24.79 43,23.89 43,22.99 43,18.68 41.44,14.51 38.63,11.25 35.81,7.99 31.92,5.84 27.66,5.21 26.77,5.08 25.87,5.01 24.98,5.01 c -4.31,0 -8.48,1.55 -11.74,4.37 -3.27,2.81 -5.41,6.71 -6.05,10.97 -0.13,0.89 -0.2,1.78 -0.2,2.68 0,2.51 0.53,4.99 1.55,7.29 z"
       style="fill:url(#_lgradient_3)"
       inkscape:connector-curvature="0" />
    <path
       id="path9"
       d="m 3,45 v 0 C 1.896,45 1,44.104 1,43 v 0 c 0,-1.104 0.896,-2 2,-2 v 0 h 20 3 v 4 h -3 z"
       inkscape:connector-curvature="0"
       style="fill:#25d1fe" />
    <path
       id="path16"
       stroke-miterlimit="3"
       d="m 17.213,27.46 7.717,-7.893 2.071,6.003 7.786,-7.03"
       style="vector-effect:non-scaling-stroke;fill:none;stroke:url(#_lgradient_4);stroke-width:3;stroke-linecap:round;stroke-linejoin:round;stroke-miterlimit:3"
       inkscape:connector-curvature="0" />
  </g>
</svg>

<?xml version="1.0" standalone="no"?><!-- Generator: Gravit.io --><svg xmlns="http://www.w3.org/2000/svg" xmlns:xlink="http://www.w3.org/1999/xlink" style="isolation:isolate" viewBox="0 0 48 48" width="48" height="48"><linearGradient id="_lgradient_3" x1="-0.06509884117246083" y1="0.6588636363636364" x2="0.9277421931539388" y2="0.7970294353223869" gradientTransform="matrix(44.01,0,0,44,2.99,1.01)" gradientUnits="userSpaceOnUse"><stop offset="0%" stop-opacity="1" style="stop-color:rgb(79,172,254)"/><stop offset="98.69565217391305%" stop-opacity="1" style="stop-color:rgb(0,242,254)"/></linearGradient><path d=" M 8.54 30.32 L 8.54 30.32 C 8.993 31.324 8.542 32.505 7.535 32.955 L 7.535 32.955 C 6.528 33.405 5.343 32.95 4.89 31.94 L 4.89 31.94 C 3.64 29.14 2.99 26.1 2.99 23.03 C 2.99 21.94 3.08 20.84 3.24 19.76 C 4.01 14.55 6.64 9.79 10.62 6.35 C 14.61 2.91 19.71 1.01 24.98 1.01 C 26.07 1.01 27.16 1.09 28.25 1.25 C 33.46 2.03 38.22 4.65 41.66 8.64 C 45.1 12.63 47 17.72 47 22.99 C 47 24.09 46.92 25.18 46.75 26.26 C 45.98 31.45 43.38 36.19 39.42 39.63 C 35.46 43.07 30.4 44.98 25.15 45.01 L 24 44 L 24 42 L 25.13 41.01 C 29.42 40.98 33.56 39.42 36.8 36.61 C 40.04 33.8 42.17 29.92 42.8 25.67 C 42.93 24.79 43 23.89 43 22.99 C 43 18.68 41.44 14.51 38.63 11.25 C 35.81 7.99 31.92 5.84 27.66 5.21 C 26.77 5.08 25.87 5.01 24.98 5.01 C 20.67 5.01 16.5 6.56 13.24 9.38 C 9.97 12.19 7.83 16.09 7.19 20.35 C 7.06 21.24 6.99 22.13 6.99 23.03 C 6.99 25.54 7.52 28.02 8.54 30.32 Z " fill="url(#_lgradient_3)"/><path d=" M 3 45 L 3 45 C 1.896 45 1 44.104 1 43 L 1 43 C 1 41.896 1.896 41 3 41 L 3 41 L 23 41 L 26 41 L 26 45 L 23 45 L 3 45 Z " fill="rgb(37,209,254)"/><linearGradient id="_lgradient_4" x1="0" y1="0.5" x2="1" y2="0.5"><stop offset="0%" stop-opacity="1" style="stop-color:rgb(178,254,250)"/><stop offset="98.26086956521739%" stop-opacity="1" style="stop-color:rgb(14,210,247)"/></linearGradient><path d=" M 17.213 27.46 L 24.93 19.567 L 27.001 25.57 L 34.787 18.54" fill="none" vector-effect="non-scaling-stroke" stroke-width="3" stroke="url(#_lgradient_4)" stroke-linejoin="round" stroke-linecap="round" stroke-miterlimit="3"/></svg>
